docs/assets/icons/ssh.svg

<?xml version="1.0" encoding="UTF-8" standalone="no"?>
<svg
   id="mdi-ssh"
   viewBox="0 0 24 9"
   version="1.1"
   sodipodi:docname="ssh.svg"
   inkscape:version="1.4.3 (0d15f75042, 2025-12-25)"
   width="24"
   height="9"
   xmlns:inkscape="http://www.inkscape.org/namespaces/inkscape"
   xmlns:sodipodi="http://sodipodi.sourceforge.net/DTD/sodipodi-0.dtd"
   xmlns="http://www.w3.org/2000/svg"
   xmlns:svg="http://www.w3.org/2000/svg">
  <defs
     id="defs1">
    <filter
       style="color-interpolation-filters:sRGB"
       inkscape:label="Drop Shadow"
       id="filter2"
       x="-0.042487595"
       y="-0.12038152"
       width="1.1067046"
       height="1.3023297">
      <feFlood
         result="flood"
         in="SourceGraphic"
         flood-opacity="0.498039"
         flood-color="rgb(0,0,0)"
         id="feFlood1" />
      <feGaussianBlur
         result="blur"
         in="SourceGraphic"
         stdDeviation="0.300000"
         id="feGaussianBlur1" />
      <feOffset
         result="offset"
         in="blur"
         dx="0.500000"
         dy="0.500000"
         id="feOffset1" />
      <feComposite
         result="comp1"
         operator="in"
         in="flood"
         in2="offset"
         id="feComposite1" />
      <feComposite
         result="comp2"
         operator="over"
         in="SourceGraphic"
         in2="comp1"
         id="feComposite2" />
    </filter>
  </defs>
  <sodipodi:namedview
     id="namedview1"
     pagecolor="#505050"
     bordercolor="#ffffff"
     borderopacity="1"
     inkscape:showpageshadow="0"
     inkscape:pageopacity="0"
     inkscape:pagecheckerboard="1"
     inkscape:deskcolor="#505050"
     inkscape:zoom="34.353604"
     inkscape:cx="14.714613"
     inkscape:cy="2.154068"
     inkscape:window-width="2560"
     inkscape:window-height="1368"
     inkscape:window-x="0"
     inkscape:window-y="0"
     inkscape:window-maximized="1"
     inkscape:current-layer="mdi-ssh" />
  <path
     d="m 1.7730639,0.4092252 c -0.81815492,0 -1.36359149,0.6817957 -1.36359149,1.3635915 v 2.3862847 c 0,0.6817965 0.54543657,1.3635919 1.36359149,1.3635919 H 5.1820426 V 6.545387 H 0.40947241 V 8.5907748 H 5.8638384 c 0.8181548,0 1.3635913,-0.6817969 1.3635913,-1.3635924 V 4.8408979 c 0,-0.6817965 -0.5454365,-1.363592 -1.3635913,-1.363592 H 2.4548596 V 2.4546125 H 7.2274297 V 0.4092252 H 1.7730639 m 8.1815489,0 c -0.8181549,0 -1.3635915,0.6817957 -1.3635915,1.3635915 v 2.3862847 c 0,0.6817965 0.5454366,1.3635919 1.3635915,1.3635919 H 13.363592 V 6.545387 H 8.5910213 v 2.0453878 h 5.4543667 c 0.818155,0 1.36359,-0.6817969 1.36359,-1.3635924 V 4.8408979 c 0,-0.6817965 -0.545435,-1.363592 -1.36359,-1.363592 H 10.636409 V 2.4546125 h 4.772569 V 0.4092252 H 9.9546128 m 6.8179572,0 v 8.1815496 h 2.045388 V 5.1817951 h 2.727183 v 3.4089797 h 2.045387 V 0.4092252 H 21.545141 V 3.1364077 H 18.817958 V 0.4092252 Z"
     id="path1"
     style="fill:#0091eb;fill-opacity:1;stroke:#4cae4f;stroke-width:0.519128;stroke-linecap:round;stroke-linejoin:round;stroke-dasharray:none;stroke-opacity:1;paint-order:normal" />
</svg>

<?xml version="1.0" encoding="UTF-8"?>
<svg version="1.1" viewBox="0 0 24 9" xmlns="http://www.w3.org/2000/svg"><path d="m1.7731.40923c-.81815 0-1.3636.6818-1.3636 1.3636v2.3863c0 .6818.54544 1.3636 1.3636 1.3636h3.409v1.0227h-4.7726v2.0454h5.4544c.81815 0 1.3636-.6818 1.3636-1.3636v-2.3863c0-.6818-.54544-1.3636-1.3636-1.3636h-3.409v-1.0227h4.7726v-2.0454h-5.4544m8.1815 0c-.81815 0-1.3636.6818-1.3636 1.3636v2.3863c0 .6818.54544 1.3636 1.3636 1.3636h3.409v1.0227h-4.7726v2.0454h5.4544c.81816 0 1.3636-.6818 1.3636-1.3636v-2.3863c0-.6818-.54544-1.3636-1.3636-1.3636h-3.409v-1.0227h4.7726v-2.0454h-5.4544m6.818 0v8.1815h2.0454v-3.409h2.7272v3.409h2.0454v-8.1815h-2.0454v2.7272h-2.7272v-2.7272z" fill="#0091eb" stroke="#4cae4f" stroke-linecap="round" stroke-linejoin="round" stroke-width=".51913" style="paint-order:normal"/></svg>
